X:1
T:Push Boat
M:2/4
L:1/8
K:G
 Bd ed| B2 G2| G2 Bd| ed B2| BA GG|E-D B,3/2 D/2| EG GE| G3 z|

